X:1
T:All the Pretty Little Horses
M:4/4
L:1/8
K:F
 D2 A2 A4| G2 F2 G4| c3 BA GF E| D4 D4| D2 A2 A4| G2 F2 G4| c3 BA GF E|\
 D4 D4| A,2 C2 C4| DD F2 F4| c3 BA GF E| D4 D4| D2 A2 A4| G2 F2 G4|\
 c3 BA GF E| D4 D4| D2 A2 A4| G2 F2 G4| c3 BA GF E| D4 D4|
